res/elements/IOPortB.svg

<?xml version="1.0" encoding="UTF-8" standalone="no"?>
<!DOCTYPE svg PUBLIC "-//W3C//DTD SVG 1.1//EN" "http://www.w3.org/Graphics/SVG/1.1/DTD/svg11.dtd">
<svg width="28px" height="28px" version="1.1" xmlns="http://www.w3.org/2000/svg" xmlns:xlink="http://www.w3.org/1999/xlink" xml:space="preserve" xmlns:serif="http://www.serif.com/" style="fill-rule:evenodd;clip-rule:evenodd;stroke-miterlimit:10;">
    <g id="IOPortB_3_">
        <g>
            <path d="M5.311,22.794c-1.082,-1.866 -2.151,-3.757 -3.221,-5.619c-2.129,-3.715 -2.129,-2.593 0.002,-6.312c1.082,-1.892 2.161,-3.801 3.242,-5.693c2.135,-3.718 1.166,-3.156 5.438,-3.149c2.136,0.004 4.298,0.008 6.431,0.014c4.266,-0.012 3.3,-0.575 5.429,3.141c1.078,1.896 2.176,3.788 3.271,5.689c2.125,3.719 2.122,2.578 -0.018,6.309c-1.07,1.871 -2.151,3.749 -3.217,5.621c-2.142,3.726 -1.166,3.154 -5.426,3.155c-2.175,0.007 -4.341,0.009 -6.521,0.009c-4.254,0 -3.287,0.563 -5.41,-3.165Zm3.664,-0.035c-4.795,-2.79 -6.435,-8.968 -3.664,-13.802c2.771,-4.846 8.9,-6.5 13.7,-3.712c4.811,2.8 6.449,8.978 3.674,13.82c-2.774,4.834 -8.905,6.491 -13.71,3.694Zm0.411,-0.718c-4.401,-2.562 -5.919,-8.239 -3.377,-12.672c2.546,-4.447 8.186,-5.962 12.584,-3.4c4.415,2.566 5.922,8.24 3.372,12.685c-2.542,4.433 -8.168,5.95 -12.579,3.387Zm1.009,-1.761c-3.438,-1.998 -4.612,-6.431 -2.631,-9.89c1.99,-3.473 6.388,-4.658 9.82,-2.666c3.45,2.01 4.627,6.441 2.637,9.912c-1.986,3.462 -6.379,4.651 -9.826,2.644Zm0.404,-0.709c3.051,1.776 6.951,0.713 8.712,-2.354c1.763,-3.073 0.719,-7.005 -2.337,-8.775c-3.051,-1.774 -6.945,-0.724 -8.707,2.354c-1.756,3.065 -0.709,7.01 2.332,8.775Z"
                  style="fill:#999;fill-rule:nonzero;stroke:#201e1e;stroke-width:0.45px;"/>
            <circle cx="13.982"
                    cy="14.085"
                    r="9.333"
                    style="fill:#444;stroke:#1a1a1a;stroke-width:1.5px;stroke-linejoin:round;stroke-miterlimit:1.41421;"/>
        </g>
        <circle cx="14.001" cy="14.084" r="6.458"/>
        <g transform="matrix(1.12285,0,0,4.82292,12.003,-50.4092)">
            <path d="M3.221,13.307c0,-0.073 -0.255,-0.133 -0.568,-0.133l-1.781,0c-0.313,0 -0.568,0.06 -0.568,0.133l0,1.272c0,0.073 0.255,0.132 0.568,0.132l1.781,0c0.313,0 0.568,-0.059 0.568,-0.132l0,-1.272Z"
                  style="fill:#232323;"/>
        </g>
    </g>
</svg>

<?xml version="1.0" encoding="UTF-8" standalone="no"?>
<!DOCTYPE svg PUBLIC "-//W3C//DTD SVG 1.1//EN" "http://www.w3.org/Graphics/SVG/1.1/DTD/svg11.dtd">
<svg width="28px" height="28px" version="1.1" xmlns="http://www.w3.org/2000/svg" xmlns:xlink="http://www.w3.org/1999/xlink" xml:space="preserve" xmlns:serif="http://www.serif.com/" style="fill-rule:evenodd;clip-rule:evenodd;stroke-miterlimit:10;">
    <g id="IOPortB_3_">
        <g>
            <path d="M5.311,22.794C4.229,20.928 3.16,19.037 2.09,17.175C-0.039,13.46 -0.039,14.582 2.092,10.863C3.174,8.971 4.253,7.062 5.334,5.17C7.469,1.452 6.5,2.014 10.772,2.021C12.908,2.025 15.07,2.029 17.203,2.035C21.469,2.023 20.503,1.46 22.632,5.176C23.71,7.072 24.808,8.964 25.903,10.865C28.028,14.584 28.025,13.443 25.885,17.174C24.815,19.045 23.734,20.923 22.668,22.795C20.526,26.521 21.502,25.949 17.242,25.95C15.067,25.957 12.901,25.959 10.721,25.959C6.467,25.959 7.434,26.522 5.311,22.794ZM8.975,22.759C4.18,19.969 2.54,13.791 5.311,8.957C8.082,4.111 14.211,2.457 19.011,5.245C23.822,8.045 25.46,14.223 22.685,19.065C19.911,23.899 13.78,25.556 8.975,22.759ZM9.386,22.041C4.985,19.479 3.467,13.802 6.009,9.369C8.555,4.922 14.195,3.407 18.593,5.969C23.008,8.535 24.515,14.209 21.965,18.654C19.423,23.087 13.797,24.604 9.386,22.041ZM10.395,20.28C6.957,18.282 5.783,13.849 7.764,10.39C9.754,6.917 14.152,5.732 17.584,7.724C21.034,9.734 22.211,14.165 20.221,17.636C18.235,21.098 13.842,22.287 10.395,20.28ZM10.799,19.571C13.85,21.347 17.75,20.284 19.511,17.217C21.274,14.144 20.23,10.212 17.174,8.442C14.123,6.668 10.229,7.718 8.467,10.796C6.711,13.861 7.758,17.806 10.799,19.571Z" style="fill:#999;fill-rule:nonzero;stroke:#201e1e;stroke-width:0.45px;"/>
            <circle cx="13.982" cy="14.085" r="9.333" style="fill:#444;stroke:#1a1a1a;stroke-width:2px;stroke-linejoin:round;stroke-miterlimit:1.41421;"/>
        </g>
        <circle cx="14.001" cy="14.084" r="6.458"/>
    </g>
</svg>
